X: 0
T: Jesus Came, The Heaven's Adoring
Z: From "Geistreiches Gesangbuch," 1698
Z: Copyright © 2004 by Douglas D. Anderson
Z: Released To The Public Domain
L: 1/4
M: 4/4
Q: 1/4=110
V: P1 name="Staff"
%%MIDI program 1 19
K: D
[V: P1]  F F B B | A3/ G/ F D | A F B A | G G F2 | E E E C | D E F F | F ^G A B | A ^G F2 | A A d (c/ B/) | ^A B c F | d (c/ B/) ^A B | B ^A B2|]
w: Je- sus came, the heavens a- dor ing, Came with peace from realms on high; Je- sus came for man's re- demp tion, Low- ly came on earth to die; Al- le lu ia!_ Al- le lu ia! Came in_ deep hu- mil i ty.

